!! 00045] TT[TB
!! Zh. Ch. XM-8001, XM75116001), Peking: LP 23205/206)
!!!OTL: Haojiu meidao zhetiao po
!!!ARE: Asia, China,ÿHunan, Xiangxi
!! Ethnic Group: Han
!! MM,
!!!SCT: C1231
!!!YEM: Copyright 1995, estate of Helmut Schaffrath.
**kern
*ICvox
*Ivox
*M2/4
*k[]
*C:
{8.dd
16cc
8dd
8cc
=1
16cc
8.a
4dd
=2
16dd
16ee
16cc
16dd
8ee
8dd
=3
16cc
16cc
16cc
16cc
8.dd
16ee
=4
16cc
16dd
16cc
16a
4a}
=5
{8dd
16a
16cc
8dd
16cc
16a
=6
8.g
16a
8.cc
16dd
=7
8gg
16dd
16ee
16dd
16cc
8a
=8
8g
8a
4g}
=9
{8.dd
16cc
8dd
8cc
=10
16cc
8.a
4dd
=11
16dd
16ee
16cc
16dd
8ee
8dd
=12
16cc
16cc
16cc
16cc
8.dd
16ee
=13
16cc
16dd
16cc
16a
4a}
=14
{8dd
16a
16cc
8dd
16cc
16a
=15
8.g
16a
8.cc
16dd
=16
8gg
16dd
16ee
16dd
16cc
8a
=17
8g
8a
4g}
=18
{8ee
16dd
16ee
16cc
16dd
16cc
16a
=19
8.g
16a
4cc
=20
4gg
4aa
=21
[2gg
=22
2gg]}
==
!!!AGN: Shange. Xin minge
!! Noten kopiert. Von der Platte nur B-Seite, da A lediglich
!!    revolutionaere Lieder enthaelt.
!!    Vereinzelt Verzierungen.
!!    T.8 bzw.17, letzte Note unleserlich. Vgl. T.21!
!!!ONB: ESAC (Essen Associative Code) Database: CHINA
!!!AMT: simple duple
!!!AIN: vox
!!!EED: Helmut Schaffrath
!!!EEV: 1.0
*-
!!!ONB: Tied note syntax fixed by Craig Sapp, 2004/05/03/
